src/assets/svg_icons/facebook.svg

<?xml version="1.0" encoding="utf-8"?><!-- Uploaded to: SVG Repo, www.svgrepo.com, Generator: SVG Repo Mixer Tools -->
<svg width="800px" height="800px" viewBox="0 0 24 24" fill="none" xmlns="http://www.w3.org/2000/svg">
<path d="M22 12C22 6.47714 17.5229 1.99999 12 1.99999C6.47715 1.99999 2 6.47714 2 12C2 16.9913 5.65686 21.1283 10.4375 21.8785V14.8906H7.89844V12H10.4375V9.79687C10.4375 7.29062 11.9304 5.90624 14.2146 5.90624C15.3087 5.90624 16.4531 6.10155 16.4531 6.10155V8.56249H15.1921C13.9499 8.56249 13.5625 9.33333 13.5625 10.1242V12H16.3359L15.8926 14.8906H13.5625V21.8785C18.3431 21.1283 22 16.9913 22 12Z" fill="#000000"/>
</svg>

<svg
  xmlns="http://www.w3.org/2000/svg"
  width="800"
  height="800"
  viewBox="0 0 24 24"
  fill="none"
  xmlns:v="https://vecta.io/nano"
>
  <path
    d="M22 12c0-5.523-4.477-10-10-10S2 6.477 2 12c0 4.991 3.657 9.128 8.438 9.878v-6.988H7.898V12h2.539V9.797c0-2.506 1.493-3.891 3.777-3.891a15.38 15.38 0 0 1 2.238.195v2.461h-1.261c-1.242 0-1.63.771-1.63 1.562V12h2.773l-.443 2.891h-2.33v6.988C18.343 21.128 22 16.991 22 12z"
    fill="#000"
  />
</svg>
